images/PARTNERS/SVG/Talento.svg

<svg width="155" height="160" viewBox="0 0 155 160" fill="none" xmlns="http://www.w3.org/2000/svg">
<g filter="url(#filter0_d_3_97)">
<path d="M81.3777 145.244L124.68 120.211C130.828 116.659 134.612 110.091 134.612 102.988L134.612 83.5472L143 77.954L134.612 72.3608L134.612 52.9205C134.612 45.817 130.828 39.2491 124.68 35.6973L81.3777 10.6638C75.2304 7.11206 67.6625 7.11206 61.5153 10.6638L18.2125 35.6973C12.0652 39.2491 8.28128 45.817 8.28128 52.9205L8.28127 102.988C8.28127 110.091 12.0652 116.659 18.2125 120.211L61.5153 145.244C67.6625 148.796 75.2348 148.796 81.3777 145.244Z" fill="white"/>
</g>
<path d="M37.9995 67.6515C38.4183 67.4217 38.8161 67.0655 39.2611 66.9853C41.191 66.6397 43.1331 66.3619 45.0752 66.0947C45.4801 66.0395 45.6737 65.8542 45.8395 65.5051C46.6841 63.7256 47.5565 61.9587 48.4028 60.181C48.6384 59.6876 48.935 59.2975 49.5144 59.2975C50.0937 59.2975 50.3903 59.6876 50.6259 60.1828C51.4739 61.9604 52.3464 63.7274 53.1909 65.5069C53.3567 65.856 53.5486 66.0323 53.9552 66.0876C55.92 66.353 57.8761 66.6771 59.8374 66.9568C60.3783 67.0334 60.8163 67.2097 60.9856 67.7797C61.1478 68.3301 60.8442 68.7078 60.4848 69.0622C59.0749 70.4551 57.658 71.8409 56.2777 73.2641C56.0753 73.4726 55.934 73.8894 55.9759 74.1761C56.262 76.0874 56.6058 77.9898 56.9303 79.8939C56.9495 80.0026 56.9617 80.1148 56.9792 80.2234C57.0542 80.7115 57.0158 81.1639 56.5779 81.4756C56.1434 81.7856 55.7228 81.6787 55.2901 81.4436C53.5399 80.496 51.7793 79.5697 50.0343 78.6114C49.6731 78.4137 49.394 78.3941 49.0188 78.6007C47.2965 79.5537 45.5533 80.4657 43.8224 81.4026C43.3774 81.6431 42.9447 81.8123 42.4735 81.4899C41.9727 81.1479 41.9762 80.6438 42.0652 80.1166C42.3898 78.1893 42.7004 76.2584 43.0494 74.3347C43.1366 73.852 43.0773 73.5171 42.7039 73.1608C41.444 71.9621 40.2226 70.7223 38.9924 69.4933C38.6539 69.1548 38.331 68.7968 38.0013 68.4477C37.9995 68.1858 37.9995 67.9187 37.9995 67.6515ZM41.6098 68.7737C42.6515 69.919 43.7002 71.1071 44.7908 72.2542C45.2288 72.7155 45.3823 73.1715 45.2619 73.8128C44.9653 75.3785 44.7297 76.9549 44.4488 78.6524C45.5917 78.0414 46.6212 77.4768 47.663 76.9388C49.8564 75.8042 49.1566 75.7721 51.3884 76.9388C52.4249 77.4803 53.4509 78.0379 54.5921 78.647C54.3862 77.4216 54.1838 76.3332 54.0233 75.2395C53.6219 72.5053 53.2817 73.2873 55.2569 71.2745C56.0369 70.4801 56.7646 69.6322 57.5149 68.8093C57.4207 68.7897 57.2566 68.7487 57.0909 68.722C55.6914 68.5083 54.2937 68.2749 52.8891 68.0986C52.2714 68.0202 51.9154 67.7067 51.6589 67.1599C51.0586 65.8774 50.4304 64.6074 49.811 63.3338C49.7307 63.1699 49.6278 63.0149 49.4934 62.7834C48.7815 64.2511 48.0905 65.6102 47.4606 66.9978C47.1569 67.6693 46.7556 68.0843 46.0018 68.1235C45.5254 68.1484 45.0525 68.2589 44.5797 68.3301C43.531 68.4833 42.484 68.6418 41.6098 68.7737Z" fill="#2AB981"/>
<path d="M85.9923 80.4016C86.2715 78.729 86.507 76.9175 86.8979 75.1398C87.1335 74.0728 86.9694 73.3354 86.1249 72.5997C84.8511 71.49 83.7029 70.2289 82.4937 69.0391C82.129 68.6793 81.848 68.2963 82.0243 67.7494C82.2075 67.1812 82.6577 67.0352 83.1951 66.9586C85.1582 66.6825 87.116 66.3583 89.0808 66.0911C89.4664 66.0377 89.6427 65.8631 89.798 65.5372C90.6443 63.7577 91.5115 61.9889 92.3578 60.2095C92.5899 59.7214 92.8725 59.3117 93.4536 59.2993C94.0678 59.285 94.368 59.7036 94.6123 60.2166C95.4603 61.9961 96.3293 63.763 97.1756 65.5443C97.3326 65.8738 97.5141 66.0341 97.898 66.0858C99.8837 66.3547 101.864 66.6789 103.848 66.9639C104.366 67.0387 104.777 67.2222 104.948 67.7584C105.112 68.2749 104.866 68.6561 104.517 68.9999C103.091 70.4106 101.681 71.8356 100.241 73.2285C99.9308 73.5296 99.8558 73.8199 99.9273 74.2278C100.266 76.1319 100.585 78.0379 100.91 79.9438C100.932 80.0756 100.987 80.2217 100.952 80.3392C100.84 80.7222 100.795 81.2548 100.535 81.4275C100.243 81.6199 99.6726 81.6253 99.3445 81.4614C97.5472 80.5601 95.7779 79.5964 94.0172 78.6203C93.6211 78.4012 93.3227 78.4226 92.9423 78.631C91.1782 79.6 89.4036 80.553 87.6238 81.4899C86.767 81.9388 85.9713 81.456 85.9923 80.4016ZM93.506 62.762C93.3489 63.0523 93.239 63.234 93.1465 63.4246C92.5375 64.6786 91.9198 65.9272 91.33 67.1901C91.084 67.7174 90.7367 68.0238 90.1452 68.0879C89.2797 68.1823 88.4212 68.3337 87.5592 68.4655C86.8438 68.5759 86.1284 68.6917 85.6014 68.7754C86.6396 69.9226 87.6866 71.1124 88.7719 72.2649C89.1872 72.7066 89.3984 73.1519 89.2344 73.7593C89.1593 74.0372 89.1297 74.3258 89.0825 74.6108C88.8679 75.9182 88.6533 77.2238 88.4212 78.647C89.8782 77.8704 91.2375 77.1775 92.5637 76.4223C93.1989 76.0589 93.745 76.0126 94.3906 76.4009C95.3085 76.9531 96.2717 77.4233 97.2174 77.9274C97.6275 78.1447 98.0428 78.3567 98.5576 78.6239C98.2714 76.9103 98.0306 75.3322 97.7357 73.7647C97.6188 73.1466 97.7741 72.6959 98.2103 72.2738C99.1927 71.3279 100.145 70.3483 101.128 69.4024C101.292 69.2439 101.547 69.1833 101.76 69.0765C101.684 68.9785 101.611 68.8823 101.536 68.7843C100.163 68.5813 98.7931 68.3319 97.4146 68.193C96.4549 68.0968 95.825 67.7388 95.4306 66.7787C94.881 65.4427 94.1865 64.1638 93.506 62.762Z" fill="#2AB981"/>
<path d="M64.0061 85.7453C64.2852 84.0727 64.5208 82.2612 64.9117 80.4835C65.1472 79.4165 64.985 78.6791 64.1387 77.9434C62.8631 76.8337 61.7167 75.5726 60.5075 74.3828C60.1428 74.023 59.8618 73.64 60.0381 73.0931C60.2213 72.5249 60.6715 72.3771 61.2072 72.3023C63.1702 72.0262 65.1281 71.702 67.0928 71.4348C67.4785 71.3814 67.6547 71.2068 67.81 70.8809C68.6563 69.1014 69.5235 67.3326 70.3698 65.5532C70.6019 65.0651 70.8846 64.6554 71.4657 64.6412C72.0799 64.6269 72.38 65.0455 72.6243 65.5585C73.4723 67.338 74.3413 69.105 75.1876 70.8862C75.3447 71.2157 75.5261 71.376 75.91 71.4277C77.8958 71.6967 79.8763 72.0208 81.8603 72.3058C82.3785 72.3807 82.7886 72.5641 82.9596 73.0985C83.1236 73.6151 82.8776 73.9962 82.5286 74.34C81.103 75.7508 79.693 77.1757 78.2535 78.5687C77.9429 78.8697 77.8678 79.16 77.9394 79.5679C78.2779 81.4721 78.5972 83.378 78.9218 85.2839C78.9445 85.4157 78.9986 85.5618 78.9637 85.6793C78.852 86.0623 78.8084 86.5949 78.5466 86.7677C78.2552 86.9601 77.6846 86.9654 77.3566 86.8015C75.5593 85.9002 73.7899 84.9366 72.0293 83.9605C71.6349 83.7414 71.3348 83.761 70.9544 83.9711C69.1903 84.9401 67.4157 85.8913 65.6358 86.83C64.7808 87.2825 63.9851 86.8015 64.0061 85.7453ZM76.5731 83.9836C76.2869 82.2701 76.0391 80.6776 75.7477 79.0923C75.6396 78.5045 75.7722 78.061 76.191 77.6531C77.2187 76.6574 78.2273 75.6421 79.2411 74.6321C79.3685 74.5057 79.4749 74.3578 79.5971 74.2118C79.4959 74.153 79.461 74.1174 79.4226 74.1102C78.3878 73.9553 77.3513 73.8199 76.3201 73.6489C73.6678 73.2089 74.2645 73.7112 73.057 71.262C72.5545 70.2414 72.0589 69.2172 71.5006 68.0719C70.841 69.4327 70.1814 70.6333 69.6736 71.8979C69.2409 72.9738 68.5813 73.4779 67.4349 73.5616C66.1 73.6578 64.7773 73.9357 63.4477 74.1352C63.3866 74.2207 63.3255 74.3062 63.2662 74.3917C63.4721 74.511 63.7129 74.5912 63.8804 74.7533C64.8611 75.7009 65.8156 76.677 66.798 77.6246C67.2377 78.0485 67.4139 78.517 67.2481 79.1226C67.1784 79.3773 67.1539 79.6463 67.1103 79.9099C66.8922 81.2316 66.6741 82.5551 66.4368 83.9961C67.9269 83.1981 69.3037 82.4909 70.6525 81.7286C71.251 81.3901 71.764 81.3866 72.3643 81.725C73.7114 82.4838 75.0882 83.1927 76.5731 83.9836Z" fill="#2AB981"/>
<path d="M78.8275 47.8976C79.002 52.3418 76.0828 55.1187 73.1932 55.8241C68.8343 56.8875 64.4371 53.5904 64.1858 49.0198C64.0724 46.9339 64.273 44.9318 65.5154 43.1631C67.3773 40.5126 70.6543 39.3744 73.6817 40.3398C76.69 41.2999 78.749 44.1 78.8258 47.3347C78.831 47.5592 78.8275 47.7818 78.8275 47.8976ZM76.7336 48.0543C76.7336 47.8317 76.7389 47.609 76.7336 47.3864C76.6691 44.6985 74.7496 42.5307 72.113 42.1674C69.6335 41.8254 67.133 43.4855 66.4996 46.0309C66.2675 46.9589 66.2483 47.9742 66.2989 48.9396C66.4629 52.0781 69.3997 54.3742 72.4219 53.7953C75.1143 53.2787 76.7371 51.1216 76.7336 48.0543Z" fill="#2AB981"/>
<path d="M57.9913 65.6084C57.9913 64.2101 57.8377 62.8154 58.0244 61.4724C58.3786 58.9359 60.5424 57.1173 63.0603 57.1084C68.686 57.0852 74.3117 57.0816 79.9373 57.1084C82.7763 57.1226 85.0378 59.4382 85.1023 62.3256C85.1268 63.4104 85.1058 64.4951 85.1058 65.6137C84.4044 65.6137 83.7587 65.6137 83.0137 65.6137C83.0137 64.5628 83.0259 63.5048 83.0102 62.4467C82.9857 60.8525 81.944 59.5825 80.4242 59.2904C80.1485 59.2369 79.8606 59.2387 79.5779 59.2387C74.1913 59.2351 68.8064 59.2351 63.4198 59.2369C61.256 59.2369 59.984 60.5497 59.9805 62.778C59.9787 63.7078 59.9805 64.6394 59.9805 65.6084C59.293 65.6084 58.6456 65.6084 57.9913 65.6084Z" fill="#2AB981"/>
<path d="M50.5791 103.21V102.273H57.1245V103.21H54.3802V111H53.3234V103.21H50.5791ZM59.6547 111.153C59.2399 111.153 58.8635 111.075 58.5254 110.919C58.1874 110.76 57.9189 110.531 57.72 110.233C57.5212 109.932 57.4217 109.568 57.4217 109.142C57.4217 108.767 57.4956 108.463 57.6433 108.23C57.7911 107.994 57.9885 107.81 58.2357 107.676C58.4828 107.543 58.7555 107.443 59.0538 107.378C59.355 107.31 59.6575 107.256 59.9615 107.216C60.3592 107.165 60.6817 107.126 60.9288 107.101C61.1788 107.072 61.3607 107.026 61.4743 106.96C61.5908 106.895 61.649 106.781 61.649 106.619V106.585C61.649 106.165 61.534 105.838 61.3038 105.605C61.0766 105.372 60.7314 105.256 60.2683 105.256C59.7882 105.256 59.4118 105.361 59.1391 105.571C58.8663 105.781 58.6746 106.006 58.5638 106.244L57.6092 105.903C57.7797 105.506 58.007 105.196 58.2911 104.974C58.578 104.75 58.8905 104.594 59.2286 104.506C59.5695 104.415 59.9047 104.369 60.2342 104.369C60.4445 104.369 60.6859 104.395 60.9587 104.446C61.2342 104.494 61.4999 104.595 61.7555 104.749C62.0141 104.902 62.2286 105.134 62.399 105.443C62.5695 105.753 62.6547 106.168 62.6547 106.688V111H61.649V110.114H61.5979C61.5297 110.256 61.4161 110.408 61.257 110.57C61.0979 110.732 60.8862 110.869 60.622 110.983C60.3578 111.097 60.0354 111.153 59.6547 111.153ZM59.8081 110.25C60.2058 110.25 60.5411 110.172 60.8138 110.016C61.0894 109.859 61.2967 109.658 61.4359 109.411C61.578 109.163 61.649 108.903 61.649 108.631V107.71C61.6064 107.761 61.5127 107.808 61.3678 107.851C61.2257 107.891 61.0609 107.926 60.8734 107.957C60.6888 107.986 60.5084 108.011 60.3323 108.034C60.159 108.054 60.0183 108.071 59.9104 108.085C59.649 108.119 59.4047 108.175 59.1774 108.251C58.953 108.325 58.7712 108.437 58.632 108.588C58.4956 108.736 58.4274 108.937 58.4274 109.193C58.4274 109.543 58.5567 109.807 58.8152 109.986C59.0766 110.162 59.4075 110.25 59.8081 110.25ZM65.496 102.273V111H64.4903V102.273H65.496ZM70.0823 111.136C69.4516 111.136 68.9075 110.997 68.4502 110.719C67.9956 110.438 67.6448 110.045 67.3976 109.543C67.1533 109.037 67.0311 108.449 67.0311 107.778C67.0311 107.108 67.1533 106.517 67.3976 106.006C67.6448 105.491 67.9885 105.091 68.4288 104.804C68.872 104.514 69.3891 104.369 69.98 104.369C70.3209 104.369 70.6575 104.426 70.9899 104.54C71.3223 104.653 71.6249 104.838 71.8976 105.094C72.1703 105.347 72.3877 105.682 72.5496 106.099C72.7115 106.517 72.7925 107.031 72.7925 107.642V108.068H67.747V107.199H71.7698C71.7698 106.83 71.6959 106.5 71.5482 106.21C71.4033 105.92 71.1959 105.692 70.926 105.524C70.659 105.357 70.3436 105.273 69.98 105.273C69.5794 105.273 69.2328 105.372 68.9402 105.571C68.6504 105.767 68.4274 106.023 68.2712 106.338C68.1149 106.653 68.0368 106.991 68.0368 107.352V107.932C68.0368 108.426 68.122 108.845 68.2925 109.189C68.4658 109.53 68.7058 109.79 69.0127 109.969C69.3195 110.145 69.676 110.233 70.0823 110.233C70.3465 110.233 70.5851 110.196 70.7982 110.122C71.0141 110.045 71.2002 109.932 71.3564 109.781C71.5127 109.628 71.6334 109.437 71.7186 109.21L72.6902 109.483C72.5879 109.812 72.4161 110.102 72.1746 110.352C71.9331 110.599 71.6348 110.793 71.2797 110.932C70.9246 111.068 70.5254 111.136 70.0823 111.136ZM75.328 107.062V111H74.3223V104.455H75.2939V105.477H75.3791C75.5325 105.145 75.7655 104.878 76.078 104.676C76.3905 104.472 76.7939 104.369 77.2882 104.369C77.7314 104.369 78.1192 104.46 78.4516 104.642C78.784 104.821 79.0425 105.094 79.2271 105.46C79.4118 105.824 79.5041 106.284 79.5041 106.841V111H78.4984V106.909C78.4984 106.395 78.3649 105.994 78.0979 105.707C77.8308 105.418 77.4644 105.273 76.9984 105.273C76.6774 105.273 76.3905 105.342 76.1377 105.482C75.8877 105.621 75.6902 105.824 75.5453 106.091C75.4004 106.358 75.328 106.682 75.328 107.062ZM84.1884 104.455V105.307H80.7964V104.455H84.1884ZM81.785 102.886H82.7907V109.125C82.7907 109.409 82.8319 109.622 82.9143 109.764C82.9995 109.903 83.1075 109.997 83.2381 110.045C83.3717 110.091 83.5123 110.114 83.66 110.114C83.7708 110.114 83.8617 110.108 83.9328 110.097C84.0038 110.082 84.0606 110.071 84.1032 110.062L84.3078 110.966C84.2396 110.991 84.1444 111.017 84.0222 111.043C83.9001 111.071 83.7453 111.085 83.5578 111.085C83.2737 111.085 82.9953 111.024 82.7225 110.902C82.4526 110.78 82.2282 110.594 82.0492 110.344C81.8731 110.094 81.785 109.778 81.785 109.398V102.886ZM88.29 111.136C87.6991 111.136 87.1806 110.996 86.7346 110.714C86.2914 110.433 85.9448 110.04 85.6948 109.534C85.4477 109.028 85.3241 108.437 85.3241 107.761C85.3241 107.08 85.4477 106.484 85.6948 105.976C85.9448 105.467 86.2914 105.072 86.7346 104.791C87.1806 104.51 87.6991 104.369 88.29 104.369C88.8809 104.369 89.3979 104.51 89.8411 104.791C90.2872 105.072 90.6337 105.467 90.8809 105.976C91.1309 106.484 91.2559 107.08 91.2559 107.761C91.2559 108.437 91.1309 109.028 90.8809 109.534C90.6337 110.04 90.2872 110.433 89.8411 110.714C89.3979 110.996 88.8809 111.136 88.29 111.136ZM88.29 110.233C88.7389 110.233 89.1082 110.118 89.3979 109.888C89.6877 109.658 89.9022 109.355 90.0414 108.98C90.1806 108.605 90.2502 108.199 90.2502 107.761C90.2502 107.324 90.1806 106.916 90.0414 106.538C89.9022 106.161 89.6877 105.855 89.3979 105.622C89.1082 105.389 88.7389 105.273 88.29 105.273C87.8411 105.273 87.4718 105.389 87.182 105.622C86.8923 105.855 86.6778 106.161 86.5386 106.538C86.3994 106.916 86.3298 107.324 86.3298 107.761C86.3298 108.199 86.3994 108.605 86.5386 108.98C86.6778 109.355 86.8923 109.658 87.182 109.888C87.4718 110.118 87.8411 110.233 88.29 110.233Z" fill="#717171"/>
<defs>
<filter id="filter0_d_3_97" x="0.28125" y="0" width="154.718" height="159.908" filterUnits="userSpaceOnUse" color-interpolation-filters="sRGB">
<feFlood flood-opacity="0" result="BackgroundImageFix"/>
<feColorMatrix in="SourceAlpha" type="matrix" values="0 0 0 0 0 0 0 0 0 0 0 0 0 0 0 0 0 0 127 0" result="hardAlpha"/>
<feOffset dx="2" dy="2"/>
<feGaussianBlur stdDeviation="5"/>
<feComposite in2="hardAlpha" operator="out"/>
<feColorMatrix type="matrix" values="0 0 0 0 0 0 0 0 0 0 0 0 0 0 0 0 0 0 0.1 0"/>
<feBlend mode="normal" in2="BackgroundImageFix" result="effect1_dropShadow_3_97"/>
<feBlend mode="normal" in="SourceGraphic" in2="effect1_dropShadow_3_97" result="shape"/>
</filter>
</defs>
</svg>

<svg width="155" height="160" fill="none" xmlns="http://www.w3.org/2000/svg"><g filter="url(#a)"><path d="m81.378 145.244 43.302-25.033a19.89 19.89 0 0 0 9.932-17.223v-19.44L143 77.953l-8.388-5.593V52.92a19.889 19.889 0 0 0-9.932-17.224L81.378 10.664a19.845 19.845 0 0 0-19.863 0L18.212 35.697a19.89 19.89 0 0 0-9.93 17.223v50.068a19.89 19.89 0 0 0 9.93 17.223l43.303 25.033a19.843 19.843 0 0 0 19.863 0Z" fill="#fff"/></g><path d="M38 67.651c.418-.23.816-.585 1.261-.666 1.93-.345 3.872-.623 5.814-.89.405-.055.599-.24.764-.59.845-1.78 1.718-3.546 2.564-5.324.235-.493.532-.883 1.111-.883.58 0 .876.39 1.112.885.848 1.777 1.72 3.544 2.565 5.324.166.349.358.525.764.58 1.965.266 3.921.59 5.882.87.541.076.98.253 1.149.823.162.55-.142.928-.501 1.282-1.41 1.393-2.827 2.779-4.207 4.202-.203.209-.344.625-.302.912.286 1.911.63 3.814.954 5.718.02.109.032.22.05.33.074.487.036.94-.402 1.252-.435.31-.855.203-1.288-.032-1.75-.948-3.51-1.874-5.256-2.833-.36-.197-.64-.217-1.015-.01-1.722.953-3.466 1.865-5.197 2.802-.445.24-.877.41-1.349.087-.5-.342-.497-.846-.408-1.373.325-1.928.635-3.859.984-5.782.088-.483.028-.818-.345-1.174-1.26-1.199-2.481-2.439-3.712-3.668-.338-.338-.661-.696-.99-1.045-.003-.262-.003-.53-.003-.796Zm3.61 1.123c1.041 1.145 2.09 2.333 3.18 3.48.439.462.592.917.472 1.559-.297 1.566-.532 3.142-.813 4.84 1.143-.612 2.172-1.176 3.214-1.714 2.193-1.135 1.494-1.167 3.725 0 1.037.541 2.063 1.099 3.204 1.708-.206-1.225-.408-2.314-.569-3.407-.401-2.735-.741-1.953 1.234-3.965.78-.795 1.508-1.643 2.258-2.466-.094-.02-.258-.06-.424-.087-1.4-.214-2.797-.447-4.202-.623-.618-.079-.974-.392-1.23-.94-.6-1.282-1.229-2.552-1.848-3.825-.08-.164-.183-.32-.318-.55-.712 1.467-1.403 2.826-2.032 4.214-.304.671-.705 1.086-1.46 1.126-.476.024-.948.135-1.421.206-1.049.153-2.096.312-2.97.444ZM85.992 80.402c.28-1.673.515-3.484.906-5.262.236-1.067.071-1.805-.773-2.54-1.274-1.11-2.422-2.371-3.631-3.56-.365-.36-.646-.744-.47-1.29.183-.569.634-.715 1.171-.791 1.963-.276 3.921-.6 5.886-.868.385-.053.562-.228.717-.554.846-1.78 1.713-3.548 2.56-5.328.232-.488.514-.897 1.096-.91.614-.014.914.405 1.158.918.848 1.78 1.717 3.546 2.564 5.327.157.33.338.49.722.542 1.986.269 3.966.593 5.95.878.518.075.929.258 1.1.794.164.517-.082.898-.431 1.242-1.426 1.41-2.836 2.836-4.276 4.228-.31.302-.385.592-.314 1 .339 1.904.658 3.81.983 5.716.022.132.077.278.042.395-.112.383-.157.916-.417 1.088-.292.193-.862.198-1.19.034-1.798-.9-3.567-1.865-5.328-2.84-.396-.22-.694-.198-1.075.01a340.363 340.363 0 0 1-5.318 2.859c-.857.449-1.653-.034-1.632-1.088Zm7.514-17.64c-.157.29-.267.472-.36.663-.609 1.254-1.226 2.502-1.816 3.765-.246.527-.593.834-1.185.898-.865.094-1.724.246-2.586.378-.715.11-1.43.226-1.958.31 1.039 1.147 2.086 2.336 3.17 3.489.416.442.627.887.463 1.494-.075.278-.104.567-.151.852-.215 1.307-.43 2.613-.662 4.036 1.457-.777 2.816-1.47 4.143-2.225.635-.363 1.181-.41 1.827-.021.917.552 1.88 1.022 2.826 1.526.41.218.826.43 1.34.697-.286-1.714-.526-3.292-.821-4.86-.117-.617.038-1.068.474-1.49.983-.946 1.935-1.926 2.918-2.872.164-.158.419-.219.632-.326-.076-.097-.149-.194-.224-.292-1.373-.203-2.743-.452-4.121-.591-.96-.096-1.59-.454-1.984-1.414-.55-1.336-1.245-2.615-1.925-4.017ZM64.006 85.745c.28-1.672.515-3.484.906-5.261.235-1.067.073-1.805-.773-2.54-1.276-1.11-2.422-2.371-3.631-3.561-.365-.36-.646-.743-.47-1.29.183-.568.634-.716 1.17-.79 1.962-.277 3.92-.601 5.885-.868.385-.054.562-.228.717-.554.846-1.78 1.713-3.548 2.56-5.328.232-.488.515-.898 1.096-.912.614-.014.914.404 1.158.917.848 1.78 1.717 3.547 2.564 5.328.157.33.338.49.722.542 1.986.269 3.966.593 5.95.878.519.075.929.258 1.1.793.164.516-.082.897-.431 1.241-1.426 1.41-2.836 2.836-4.275 4.229-.311.3-.386.591-.315.999.339 1.904.658 3.81.983 5.716.023.132.077.278.042.395-.112.383-.156.916-.417 1.089-.292.192-.862.197-1.19.034a145.93 145.93 0 0 1-5.328-2.842c-.394-.219-.694-.199-1.075.011-1.764.97-3.538 1.92-5.318 2.859-.855.453-1.65-.028-1.63-1.085Zm12.567-1.761c-.286-1.714-.534-3.306-.825-4.892-.108-.588.024-1.031.443-1.439 1.028-.996 2.036-2.01 3.05-3.02.127-.127.234-.275.356-.421-.101-.059-.136-.095-.174-.102-1.035-.155-2.072-.29-3.103-.461-2.652-.44-2.055.062-3.263-2.387-.502-1.02-.998-2.045-1.556-3.19-.66 1.36-1.32 2.561-1.827 3.826-.433 1.076-1.093 1.58-2.24 1.664-1.334.096-2.657.374-3.986.573-.061.086-.123.171-.182.257.206.119.447.2.614.361.981.948 1.936 1.924 2.918 2.872.44.424.616.892.45 1.498-.07.254-.094.523-.138.787l-.673 4.086c1.49-.798 2.867-1.505 4.216-2.267.598-.339 1.111-.342 1.711-.004 1.347.759 2.724 1.468 4.21 2.259ZM78.828 47.898c.174 4.444-2.745 7.22-5.635 7.926-4.359 1.064-8.756-2.234-9.007-6.804-.114-2.086.087-4.088 1.33-5.857 1.861-2.65 5.138-3.789 8.166-2.823 3.008.96 5.067 3.76 5.144 6.995.005.224.002.447.002.563Zm-2.094.156c0-.222.005-.445 0-.668-.065-2.688-1.984-4.855-4.621-5.219-2.48-.342-4.98 1.319-5.613 3.864-.233.928-.252 1.943-.201 2.909.164 3.138 3.1 5.434 6.123 4.855 2.692-.516 4.315-2.673 4.312-5.74Z" fill="#2AB981"/><path d="M57.991 65.608c0-1.398-.153-2.793.033-4.136.355-2.536 2.518-4.355 5.036-4.364 5.626-.023 11.252-.026 16.877 0 2.84.015 5.1 2.33 5.165 5.218.025 1.084.004 2.17.004 3.288h-2.092c0-1.051.012-2.11-.004-3.167-.024-1.595-1.066-2.864-2.586-3.157-.276-.053-.563-.051-.846-.051-5.387-.004-10.772-.004-16.158-.002-2.164 0-3.436 1.313-3.44 3.541v2.83h-1.989Z" fill="#2AB981"/><path d="M50.58 103.21v-.937h6.544v.937H54.38V111h-1.057v-7.79H50.58Zm9.075 7.943c-.415 0-.791-.078-1.13-.234a1.94 1.94 0 0 1-.805-.686c-.199-.301-.298-.665-.298-1.091 0-.375.074-.679.221-.912.148-.236.346-.42.593-.554.247-.133.52-.233.818-.298.301-.068.603-.122.907-.162.398-.051.72-.09.968-.115.25-.029.432-.075.545-.141.117-.065.175-.179.175-.341v-.034c0-.42-.115-.747-.345-.98-.227-.233-.573-.349-1.036-.349-.48 0-.856.105-1.129.315-.273.21-.464.435-.575.673l-.955-.341c.17-.397.398-.707.682-.929.287-.224.6-.38.938-.468a3.89 3.89 0 0 1 1.005-.137 4 4 0 0 1 .725.077c.275.048.54.149.796.303.26.153.474.385.644.694.17.31.256.725.256 1.245V111h-1.006v-.886h-.051a1.773 1.773 0 0 1-.341.456c-.16.162-.37.299-.635.413-.264.114-.587.17-.967.17Zm.153-.903c.398 0 .733-.078 1.006-.234a1.601 1.601 0 0 0 .835-1.385v-.921c-.043.051-.136.098-.281.141-.142.04-.307.075-.495.106a20.993 20.993 0 0 1-.963.128 3.89 3.89 0 0 0-.733.166 1.261 1.261 0 0 0-.545.337c-.136.148-.205.349-.205.605 0 .35.13.614.388.793.262.176.593.264.993.264Zm5.688-7.977V111H64.49v-8.727h1.006Zm4.586 8.863c-.63 0-1.174-.139-1.632-.417a2.806 2.806 0 0 1-1.052-1.176c-.245-.506-.367-1.094-.367-1.765 0-.67.122-1.261.367-1.772.247-.515.59-.915 1.03-1.202.444-.29.961-.435 1.552-.435.34 0 .677.057 1.01.171.332.113.635.298.908.554.272.253.49.588.652 1.005.162.418.243.932.243 1.543v.426h-5.046v-.869h4.023a2.15 2.15 0 0 0-.222-.989 1.67 1.67 0 0 0-.622-.686 1.747 1.747 0 0 0-.946-.251c-.4 0-.747.099-1.04.298-.29.196-.513.452-.669.767a2.25 2.25 0 0 0-.234 1.014v.58c0 .494.085.913.255 1.257.174.341.414.601.72.78.308.176.664.264 1.07.264.265 0 .503-.037.716-.111a1.53 1.53 0 0 0 .558-.341c.157-.153.277-.344.363-.571l.971.273a2.157 2.157 0 0 1-.515.869c-.242.247-.54.441-.895.58a3.327 3.327 0 0 1-1.198.204Zm5.246-4.074V111h-1.006v-6.545h.972v1.022h.085c.153-.332.386-.599.699-.801.313-.204.716-.307 1.21-.307.443 0 .831.091 1.164.273.332.179.59.452.775.818.185.364.277.824.277 1.381V111h-1.006v-4.091c0-.514-.133-.915-.4-1.202-.267-.289-.634-.434-1.1-.434-.32 0-.608.069-.86.209-.25.139-.448.342-.593.609-.145.267-.217.591-.217.971Zm8.86-2.607v.852h-3.392v-.852h3.392Zm-2.403-1.569h1.006v6.239c0 .284.04.497.123.639a.64.64 0 0 0 .324.281c.134.046.274.069.422.069.11 0 .202-.006.273-.017l.17-.035.205.904a2.191 2.191 0 0 1-.75.119c-.284 0-.563-.061-.836-.183a1.657 1.657 0 0 1-.673-.558c-.176-.25-.264-.566-.264-.946v-6.512Zm6.505 8.25c-.59 0-1.11-.14-1.555-.422a2.861 2.861 0 0 1-1.04-1.18c-.247-.506-.37-1.097-.37-1.773 0-.681.123-1.277.37-1.785.25-.509.596-.904 1.04-1.185.446-.281.964-.422 1.555-.422.59 0 1.108.141 1.551.422.446.281.793.676 1.04 1.185.25.508.375 1.104.375 1.785 0 .676-.125 1.267-.375 1.773a2.822 2.822 0 0 1-1.04 1.18c-.443.282-.96.422-1.551.422Zm0-.903c.449 0 .818-.115 1.108-.345.29-.23.504-.533.643-.908.14-.375.21-.781.21-1.219 0-.437-.07-.845-.21-1.223a2.065 2.065 0 0 0-.643-.916c-.29-.233-.66-.349-1.108-.349-.449 0-.818.116-1.108.349-.29.233-.504.539-.643.916-.14.378-.21.786-.21 1.223 0 .438.07.844.21 1.219.139.375.353.678.643.908.29.23.66.345 1.108.345Z" fill="#717171"/><defs><filter id="a" x=".281" y="0" width="154.718" height="159.908" filterUnits="userSpaceOnUse" color-interpolation-filters="sRGB"><feFlood flood-opacity="0" result="BackgroundImageFix"/><feColorMatrix in="SourceAlpha" values="0 0 0 0 0 0 0 0 0 0 0 0 0 0 0 0 0 0 127 0" result="hardAlpha"/><feOffset dx="2" dy="2"/><feGaussianBlur stdDeviation="5"/><feComposite in2="hardAlpha" operator="out"/><feColorMatrix values="0 0 0 0 0 0 0 0 0 0 0 0 0 0 0 0 0 0 0.1 0"/><feBlend in2="BackgroundImageFix" result="effect1_dropShadow_3_97"/><feBlend in="SourceGraphic" in2="effect1_dropShadow_3_97" result="shape"/></filter></defs></svg>
